X:544
%%etbk:tnset id:280,pos:1,rep:3x,ant:
%%etbk:pldat 2016-08-18T19:16,2016-08-17T16:49,2016-08-16T17:05,2016-08-15T18:09,2016-06-09T19:31,2016-06-08T17:07,2016-06-07T17:03,2016-06-04T16:21,2016-06-02T18:15,2016-05-30T17:59,2016-05-19T19:18,2016-05-18T17:19,2016-05-17T16:58,2016-05-16T15:20,2016-05-15T15:42,2016-05-14T16:45,2016-05-12T18:31,2016-05-10T18:54,2016-03-02T17:13,2016-03-01T16:33,2016-02-29T19:22,2016-02-27T14:25,2016-02-23T16:20,2016-02-16T17:55,2015-11-20T17:15,2015-11-18T16:54,2015-11-17T16:57,2015-11-15T15:07,2015-11-14T15:38,2015-11-11T15:33,2015-11-10T17:38,2015-09-10T16:26,2015-09-09T16:39,2015-09-08T18:56,2015-09-03T16:33,2015-09-02T16:36,2015-09-01T16:26,2015-08-31T18:47,2015-08-30T14:42,2015-08-26T15:51,2015-08-06T17:50,2015-08-05T16:24,2015-08-04T15:24,2015-08-03T18:28,2015-08-02T11:30,2015-08-01T16:20,2015-07-29T16:27,2015-07-22T16:44,2015-06-26T17:10,2015-06-24T18:40,2015-06-18T18:17,2015-06-16T16:23,2015-05-07T18:50,2015-04-16T19:17,2015-04-15T16:41,2015-04-13T18:55,2015-04-12T11:25,2015-04-11T14:37,2015-03-19T19:11,2015-03-16T19:22,2015-03-15T14:20,2015-03-11T16:01,2015-03-04T17:35,2015-02-22T15:42,2015-02-21T17:00,2015-02-17T17:07,2015-02-17T17:01,2015-02-14T13:01,2015-02-11T15:56,2015-02-01T14:45,2015-01-24T12:56,2015-01-14T17:38,2015-01-12T18:18,2015-01-08T18:13,2015-01-06T18:53,2014-12-27T14:01,2014-12-15T16:04,2014-12-02T16:37,2014-10-16T19:17,2014-10-14T18:25,2014-10-11T13:28,2014-09-18T18:10,2014-09-14T10:48,2014-08-14T19:27,2014-08-13T18:05,2014-08-12T19:15,2014-08-11T19:34,2014-08-10T12:04,2014-08-06T19:30,2014-08-03T17:08,2014-08-02T15:45,2014-07-30T18:37,2014-07-26T16:04,2014-07-23T18:40,2014-07-20T14:10,2014-07-16T18:37,2014-07-05T13:31,2014-07-02T17:33,2014-06-25T16:40,2014-06-20T16:18,2014-06-19T19:17,2014-06-17T19:01,2014-06-12T18:19,2014-06-11T15:38,2014-06-09T15:46,2014-06-05T18:55,2014-06-04T17:41,2014-06-03T17:55,2014-06-02T19:11,2014-06-01T11:23,2014-05-28T14:51,2014-05-23T16:35,2014-05-21T19:33,2014-05-20T16:09,2014-05-17T15:35,2014-05-13T18:11,2014-05-07T17:33,2014-04-24T19:49,2014-04-23T16:10,2014-04-22T18:48,2014-04-21T16:38,2014-04-21T14:51,2014-04-20T13:56,2014-04-18T15:07,2014-04-14T10:46,2014-04-09T16:05,2014-04-07T18:13,2014-04-06T11:55,2014-04-03T19:41,2014-04-02T18:18,2014-04-01T16:45,2014-03-29T15:44,2014-03-26T16:25,2014-03-25T15:24,2014-03-24T18:35,2014-03-23T14:51,2014-03-22T14:55,2014-03-21T15:52,2014-03-20T18:36,2014-03-19T18:57,2014-03-13T18:50,2014-03-11T18:24,2013-12-27T17:17,2013-12-22T16:30,2013-12-18T16:52,2013-12-11T16:53,2013-12-09T18:39,2013-12-07T17:51,2013-12-06T17:17,2013-12-04T17:57,2013-12-03T18:59,2013-12-02T18:44
T: Hand Ba' Breakdown
C: The Shee
Z: Piano Box Version by Martin Fleischmann
H: Created 2013-12-01 /  Last Modified 2014-06-04
M: 4/4
L: 1/8
R: Reel
K: Gmin
P:A
|: "gm"!4!G3!2!D !3!FGA!4!G-|GDFD !3!F!2!DCD | !4!G2!2!D2 FGA!4!G-|GG,A,!3!B, !1!CDFD|
"gm"G3D FGAG-|GDFD FDCD | "B"!1!B,!3!FFB, FFB,F |1 "F"!1!A,!3!FFA, FFA,F:|2 "To Part B"!5!A!3!F!1!FA ccAc||3 "To Part D" A8 | B8 | A8||
K: Gdor
P:B
|:"dm"!3!f3d fgag-| "C"ggfe fece | "dm"f2d2 fgag-| "C"ggfe fecz |
"dm"dffd fgag-| "C"ggfe fece | "dm"f2d2 fga!2!g-| g!3!ba!1!g !4!f!3!_ed2:|
K: Gmin
P:C
|"Eb"!3!e2ed c!3!BAc- | "Bb"d2dc BAGA- | "gm"B2BA G!2!FDF | !3!GAFD F!3!G!1!G2 |
"Eb"e2ed cBAc- | "Bb"d2dc BAGA- | "gm"B2BA GFDF | GAFD FGG2 |
|"Eb"!3!e2e2 ed c!3!B- | "Bb"!5!d2d2 dc BA- | "gm"!3!B2B2 BAG!2!F | !3!GAFD F!3!G!1!G2 |
"Eb"!3!e2e2 ed c!3!B- | "Bb"!5!d2d2 dc BA- | "gm"!3!B2B2 BAG!2!F | !3!GAFD F!3!G!1!G2 |
P:D
|:"gm"!1!G!3!d!5!g!2!^c !3!d!4!f^cd | !4!f^cdf !5!gf!3!d!2!B | Gdg^c df!2!^c!1!d | !3!gg fg gg f!1!d|
"gm"!3!ddg^c df^cd | f^cd!4!f !3!gfdg | !5!ba!3!g!1!d z!5!g!4!f!3!d | !2!^c!1!=c!3!B!2!G !1!F!2!G!3!B!4!c :| 
P:E
|:"cm"!3!BA!1!F!2!E- E!3!BAF | "dm"BAF!4!c- cB!2!A!4!c | "cm"!3!BA!1!F!2!E- EBA!1!F | "gm"!1!G!2!Bc!4!d "dm"!5!fdc!2!B |
"cm"!3!BAFE- EBAF | "dm"BAFc- cdfg | "gm"bag"am"d z!5!gf!3!d | "cm" ^c=cBG "dm"FGBc :|
P:D var
|"gm"!1!G!3!d!5!g!2!^c !3!d!4!f^cd | !4!f^cdf ^cdf^c | df^cd f^cdf | ^cdf^c df^cd |
"gm"!1!G!3!d!5!g!2!^c !3!d!4!f^cd | !4!f^cdf ^cd!4!f!3!g | !5!ba!3!g!1!d z!5!g!4!f!3!d | !2!^c!1!=c!3!B!2!G !1!F!2!G!3!B!4!c | 
P:G1
|:"Chaos A"G3 [G^c]z[G^c]z[G^c] | z8| G3 [G^c]z[G^c]z[G^c] | z8:|
P:G2
|:"Chaos B"G3 [G^c]z[G^c]z[G^c] | z4 G2 z2| G3 [G^c]z[G^c]z[G^c] | z4 G2 z2:|


